atlases.vromfs.bin_u/gameuiskin/attack.svg

<svg id="guns_sights" data-name="guns sights" xmlns="http://www.w3.org/2000/svg" width="128" height="128" viewBox="0 0 128 128">
  <metadata><?xpacket begin="﻿" id="W5M0MpCehiHzreSzNTczkc9d"?>
<x:xmpmeta xmlns:x="adobe:ns:meta/" x:xmptk="Adobe XMP Core 5.6-c138 79.159824, 2016/09/14-01:09:01        ">
   <rdf:RDF xmlns:rdf="http://www.w3.org/1999/02/22-rdf-syntax-ns#">
      <rdf:Description rdf:about=""/>
   </rdf:RDF>
</x:xmpmeta>
                                                                                                    
                                                                                                    
                                                                                                    
                                                                                                    
                                                                                                    
                                                                                                    
                                                                                                    
                                                                                                    
                                                                                                    
                                                                                                    
                                                                                                    
                                                                                                    
                                                                                                    
                                                                                                    
                                                                                                    
                                                                                                    
                                                                                                    
                                                                                                    
                                                                                                    
                                                                                                    
                           
<?xpacket end="w"?></metadata>
<defs>
    <style>
      .cls-1 {
        fill: #e0e0e0;
        fill-rule: evenodd;
      }
    </style>
  </defs>
  <path class="cls-1" d="M117.218,23.777l-2.951.055L98.352,40.3l3.059,5.831,3.006,2.886,2.951-.056,3,2.881,0.053,2.945-2.886,2.994-2.951.053-3.006-2.878-0.053-2.947L97,47.679,92.6,49.22,28.818,115l-7.35,1.086-0.993-.933,0.843-7.381L85.106,42l1.4-4.408L82,33.256l-2.953.058-3.009-2.886-0.053-2.939,2.889-3,2.948-.053,3.006,2.883,0.058,2.942,3.006,2.886,5.96,2.814L109.762,19.5l-0.055-2.947,4.338-4.489,2.95-.053,4.511,4.328,0.05,2.939ZM48.989,33.209l-2.956-.05-4.5,4.353,1.39,4.436L60.111,59.725,52.9,67.246,35.418,49.162l-4.369-1.544-4.5,4.334L26.5,54.9l-3,2.895-2.948-.053-2.9-2.986,0.05-2.939,3-2.892,2.951,0.047,3-2.895,3.034-5.839L13.743,23.8l-2.956-.05L6.44,19.274l0.053-2.942,4.5-4.342,2.948,0.053,4.352,4.483-0.05,2.942L34.186,35.907l5.951-2.845,3-2.892,0.05-2.942,2.992-2.889,2.953,0.05,2.9,2.983-0.05,2.942Zm57.622,74.614,0.767,7.251-0.928.936-7.347-.97L67.866,82.728l7.211-7.522Z"/>
</svg>

<svg width="128" height="128" viewBox="0 0 128 128" fill="none" xmlns="http://www.w3.org/2000/svg">
<path fill-rule="evenodd" clip-rule="evenodd" d="M117.218 23.777L114.267 23.832L98.352 40.3L101.411 46.131L104.417 49.017L107.368 48.961L110.368 51.842L110.421 54.787L107.535 57.781L104.584 57.834L101.578 54.956L101.525 52.009L97 47.679L92.6 49.22L28.818 115L21.468 116.086L20.475 115.153L21.318 107.772L85.106 42L86.506 37.592L82 33.256L79.047 33.314L76.038 30.428L75.985 27.489L78.874 24.489L81.822 24.436L84.828 27.319L84.886 30.261L87.892 33.147L93.852 35.961L109.762 19.5L109.707 16.553L114.045 12.064L116.995 12.011L121.506 16.339L121.556 19.278L117.218 23.777ZM48.989 33.209L46.033 33.159L41.533 37.512L42.923 41.948L60.111 59.725L52.9 67.246L35.418 49.162L31.049 47.618L26.549 51.952L26.5 54.9L23.5 57.795L20.552 57.742L17.652 54.756L17.702 51.817L20.702 48.925L23.653 48.972L26.653 46.077L29.687 40.238L13.743 23.8L10.787 23.75L6.44 19.274L6.493 16.332L10.993 11.99L13.941 12.043L18.293 16.526L18.243 19.468L34.186 35.907L40.137 33.062L43.137 30.17L43.187 27.228L46.179 24.339L49.132 24.389L52.032 27.372L51.982 30.314L48.989 33.209ZM106.611 107.823L107.378 115.074L106.45 116.01L99.103 115.04L67.866 82.728L75.077 75.206L106.611 107.823Z" fill="white"/>
</svg>
